!!!COM: Music21
!!!OTL: O Naboeiro
!!!OMV: pezas_pasodobles_o-naboeiro_o-naboeiro-partitura.musicxml
**kern
*I"Gaita
*I'Bag
*clefG^2
*k[]
*M2/4
*MM186
=1
!LO:TX:a:t=[quarter]=186
4.ccc
8bb
=
8aaL
8ggJ
8ffL
8eeJ
=
8ffL
8ggJ
8ffL
8eeJ
=
2dd
=
4.bb
8aa
=
8ggL
8ddJ
8eeL
8ffJ
=
8eeL
8ffJ
8eeL
8ddJ
=
2cc
=
4.ccc
8bb
=
8aaL
8ggJ
8ffL
8eeJ
=
8ffL
8ggJ
8ffL
8eeJ
=
2dd
!!linebreak:original
=
4.bb
8aa
=
8ggL
8ffJ
8eeL
8ddJ
=
[2cc
=
2cc]
=||
*M2/4
*MM186
!LO:TX:a:t=[quarter]=186
4.ccc
8bb
=
8aaL
8ggJ
8ffL
8eeJ
=
8ffL
8ggJ
8ffL
8eeJ
=
2dd
=
4.bb
8aa
=
8ggL
8ddJ
8eeL
8ffJ
=
8eeL
8ffJ
8eeL
8ddJ
=
2cc
!!linebreak:original
=
4.ccc
8bb
=
8aaL
8ggJ
8ffL
8eeJ
=
8ffL
8ggJ
8ffL
8eeJ
=
2dd
!!linebreak:original
=
4.bb
8aa
=
8ggL
8ffJ
8eeL
8ddJ
=
[2cc
=
4.cc]
8cc
=||
8eeL
16eeL
16ccJJ
8ddL
8eeJ
=
8ff
4ee
8cc
=
8eeL
16eeL
16ccJJ
8ddL
8eeJ
=
8ff
4ee
8cc
=
8eeL
16eeL
16ccJJ
8ddL
8eeJ
!!linebreak:original
=
8ee
4dd
8b
=
8ddL
16ddL
16bJJ
8ccL
8ddJ
=
8dd
4cc
8cc
=
8eeL
16eeL
16ccJJ
8ddL
8eeJ
=
8ff
4ee
8cc
=
8eeL
16eeL
16ccJJ
8ddL
8eeJ
=
8ff
4ee
8cc
=
8eeL
16eeL
16ccJJ
8ddL
8eeJ
=
8eeL
8ddJ
8bL
8ddJ
!!linebreak:original
=
8ggL
8ffJ
8ddL
8bJ
=
[2cc
=
4.cc]
8cc
=||
8eeL
16eeL
16ccJJ
8ddL
8eeJ
=
8ff
4ee
8cc
=
8eeL
16eeL
16ccJJ
8ddL
8eeJ
=
8ff
4ee
8cc
=
8eeL
16eeL
16ccJJ
8ddL
8eeJ
!!linebreak:original
=
8ee
4dd
8b
=
8ddL
16ddL
16bJJ
8ccL
8ddJ
=
8dd
4cc
8cc
=
8eeL
16eeL
16ccJJ
8ddL
8eeJ
=
8ff
4ee
8cc
=
8eeL
16eeL
16ccJJ
8ddL
8eeJ
=
8ff
4ee
8cc
=
8eeL
16eeL
16ccJJ
8ddL
8eeJ
=
8eeL
8ddJ
8bL
8ddJ
!!linebreak:original
=
8ggL
8ffJ
8ddL
8bJ
=
[2cc
=
2cc]
==
*-
